src/assets/images/PoweredByStripe.svg

<svg height="26" width="119" xmlns="http://www.w3.org/2000/svg"><g fill="#424770" fill-rule="evenodd"><path d="m113 26h-107c-3.314 0-6-2.686-6-6v-14c0-3.314 2.686-6 6-6h107c3.314 0 6 2.686 6 6v14c0 3.314-2.686 6-6 6zm5-20c0-2.761-2.239-5-5-5h-107c-2.761 0-5 2.239-5 5v14c0 2.761 2.239 5 5 5h107c2.761 0 5-2.239 5-5z" opacity=".349"/><path d="m60.7 18.437h-1.305l1.01-2.494-2.01-5.072h1.379l1.263 3.452 1.273-3.452h1.379zm-5.01-2.178c-.452 0-.916-.168-1.336-.495v.369h-1.347v-7.567h1.347v2.663c.42-.316.884-.484 1.336-.484 1.41 0 2.378 1.136 2.378 2.757 0 1.62-.968 2.757-2.378 2.757zm-.284-4.357c-.368 0-.737.158-1.052.474v2.252c.315.315.684.473 1.052.473.758 0 1.284-.652 1.284-1.599s-.526-1.6-1.284-1.6zm-7.852 3.862c-.41.327-.873.495-1.336.495-1.4 0-2.378-1.137-2.378-2.757 0-1.621.978-2.757 2.378-2.757.463 0 .926.168 1.336.484v-2.663h1.358v7.567h-1.358zm0-3.388c-.305-.316-.673-.474-1.041-.474-.769 0-1.295.653-1.295 1.6s.526 1.599 1.295 1.599c.368 0 .736-.158 1.041-.473zm-8.019 1.494c.084.8.716 1.347 1.599 1.347.485 0 1.021-.179 1.568-.495v1.127c-.599.273-1.199.41-1.789.41-1.589 0-2.704-1.158-2.704-2.799 0-1.589 1.094-2.715 2.599-2.715 1.379 0 2.315 1.084 2.315 2.63 0 .148 0 .316-.021.495zm1.221-2.084c-.653 0-1.158.485-1.221 1.211h2.294c-.042-.716-.473-1.211-1.073-1.211zm-4.768.832v3.515h-1.347v-5.262h1.347v.526c.379-.421.842-.652 1.294-.652.148 0 .295.01.442.052v1.2c-.147-.042-.315-.063-.473-.063-.442 0-.916.242-1.263.684zm-6.009 1.252c.084.8.715 1.347 1.599 1.347.484 0 1.021-.179 1.568-.495v1.127c-.6.273-1.2.41-1.789.41-1.589 0-2.704-1.158-2.704-2.799 0-1.589 1.094-2.715 2.599-2.715 1.378 0 2.315 1.084 2.315 2.63 0 .148 0 .316-.021.495zm1.22-2.084c-.652 0-1.157.485-1.22 1.211h2.294c-.042-.716-.474-1.211-1.074-1.211zm-5.925 4.347-1.074-3.578-1.063 3.578h-1.21l-1.81-5.262h1.347l1.063 3.578 1.063-3.578h1.22l1.063 3.578 1.063-3.578h1.347l-1.799 5.262zm-8.231.126c-1.589 0-2.715-1.147-2.715-2.757 0-1.621 1.126-2.757 2.715-2.757s2.705 1.136 2.705 2.757c0 1.61-1.116 2.757-2.705 2.757zm0-4.388c-.789 0-1.336.663-1.336 1.631s.547 1.631 1.336 1.631c.779 0 1.326-.663 1.326-1.631s-.547-1.631-1.326-1.631zm-5.915 1.662h-1.21v2.6h-1.347v-7.241h2.557c1.474 0 2.526.958 2.526 2.326s-1.052 2.315-2.526 2.315zm-.189-3.546h-1.021v2.452h1.021c.779 0 1.326-.495 1.326-1.221 0-.736-.547-1.231-1.326-1.231z" opacity=".502"/><path d="m111.116 14.051h-5.559c.127 1.331 1.102 1.723 2.209 1.723 1.127 0 2.015-.238 2.789-.628v2.287c-.771.428-1.79.736-3.147.736-2.766 0-4.704-1.732-4.704-5.156 0-2.892 1.644-5.188 4.345-5.188 2.697 0 4.105 2.295 4.105 5.203 0 .275-.025.87-.038 1.023zm-4.085-3.911c-.71 0-1.499.536-1.499 1.815h2.936c0-1.278-.74-1.815-1.437-1.815zm-8.923 8.029c-.994 0-1.601-.419-2.009-.718l-.006 3.213-2.839.604-.001-13.254h2.5l.148.701c.392-.366 1.111-.89 2.224-.89 1.994 0 3.872 1.796 3.872 5.102 0 3.608-1.858 5.242-3.889 5.242zm-.662-7.829c-.651 0-1.06.238-1.356.563l.017 4.219c.276.299.673.539 1.339.539 1.05 0 1.754-1.143 1.754-2.672 0-1.485-.715-2.649-1.754-2.649zm-8.297-2.326h2.85v9.952h-2.85zm0-3.178 2.85-.606v2.313l-2.85.606zm-3.039 6.383v6.747h-2.838v-9.952h2.455l.178.839c.665-1.222 1.992-.974 2.37-.838v2.61c-.361-.117-1.494-.287-2.165.594zm-6.086 3.256c0 1.673 1.792 1.152 2.155 1.007v2.311c-.378.208-1.064.376-1.992.376-1.685 0-2.95-1.241-2.95-2.922l.013-9.109 2.772-.59.002 2.466h2.156v2.421h-2.156zm-3.539.484c0 2.044-1.627 3.21-3.988 3.21-.979 0-2.049-.19-3.105-.644v-2.711c.953.518 2.167.907 3.108.907.633 0 1.089-.17 1.089-.695 0-1.355-4.316-.845-4.316-3.988 0-2.01 1.535-3.213 3.838-3.213.941 0 1.881.144 2.822.519v2.675c-.864-.467-1.961-.731-2.824-.731-.595 0-.965.172-.965.615 0 1.278 4.341.67 4.341 4.056z" opacity=".502"/></g></svg>

<svg 
 xmlns="http://www.w3.org/2000/svg"
 xmlns:xlink="http://www.w3.org/1999/xlink"
 width="119px" height="26px">
<path fill-rule="evenodd"  opacity="0.349" fill="rgb(66, 71, 112)"
 d="M113.000,26.000 L6.000,26.000 C2.686,26.000 -0.000,23.314 -0.000,20.000 L-0.000,6.000 C-0.000,2.686 2.686,-0.000 6.000,-0.000 L113.000,-0.000 C116.314,-0.000 119.000,2.686 119.000,6.000 L119.000,20.000 C119.000,23.314 116.314,26.000 113.000,26.000 ZM118.000,6.000 C118.000,3.239 115.761,1.000 113.000,1.000 L6.000,1.000 C3.239,1.000 1.000,3.239 1.000,6.000 L1.000,20.000 C1.000,22.761 3.239,25.000 6.000,25.000 L113.000,25.000 C115.761,25.000 118.000,22.761 118.000,20.000 L118.000,6.000 Z"/>
<path fill-rule="evenodd"  opacity="0.502" fill="rgb(66, 71, 112)"
 d="M60.700,18.437 L59.395,18.437 L60.405,15.943 L58.395,10.871 L59.774,10.871 L61.037,14.323 L62.310,10.871 L63.689,10.871 L60.700,18.437 ZM55.690,16.259 C55.238,16.259 54.774,16.091 54.354,15.764 L54.354,16.133 L53.007,16.133 L53.007,8.566 L54.354,8.566 L54.354,11.229 C54.774,10.913 55.238,10.745 55.690,10.745 C57.100,10.745 58.068,11.881 58.068,13.502 C58.068,15.122 57.100,16.259 55.690,16.259 ZM55.406,11.902 C55.038,11.902 54.669,12.060 54.354,12.376 L54.354,14.628 C54.669,14.943 55.038,15.101 55.406,15.101 C56.164,15.101 56.690,14.449 56.690,13.502 C56.690,12.555 56.164,11.902 55.406,11.902 ZM47.554,15.764 C47.144,16.091 46.681,16.259 46.218,16.259 C44.818,16.259 43.840,15.122 43.840,13.502 C43.840,11.881 44.818,10.745 46.218,10.745 C46.681,10.745 47.144,10.913 47.554,11.229 L47.554,8.566 L48.912,8.566 L48.912,16.133 L47.554,16.133 L47.554,15.764 ZM47.554,12.376 C47.249,12.060 46.881,11.902 46.513,11.902 C45.744,11.902 45.218,12.555 45.218,13.502 C45.218,14.449 45.744,15.101 46.513,15.101 C46.881,15.101 47.249,14.943 47.554,14.628 L47.554,12.376 ZM39.535,13.870 C39.619,14.670 40.251,15.217 41.134,15.217 C41.619,15.217 42.155,15.038 42.702,14.722 L42.702,15.849 C42.103,16.122 41.503,16.259 40.913,16.259 C39.324,16.259 38.209,15.101 38.209,13.460 C38.209,11.871 39.303,10.745 40.808,10.745 C42.187,10.745 43.123,11.829 43.123,13.375 C43.123,13.523 43.123,13.691 43.102,13.870 L39.535,13.870 ZM40.756,11.786 C40.103,11.786 39.598,12.271 39.535,12.997 L41.829,12.997 C41.787,12.281 41.356,11.786 40.756,11.786 ZM35.988,12.618 L35.988,16.133 L34.641,16.133 L34.641,10.871 L35.988,10.871 L35.988,11.397 C36.367,10.976 36.830,10.745 37.282,10.745 C37.430,10.745 37.577,10.755 37.724,10.797 L37.724,11.997 C37.577,11.955 37.409,11.934 37.251,11.934 C36.809,11.934 36.335,12.176 35.988,12.618 ZM29.979,13.870 C30.063,14.670 30.694,15.217 31.578,15.217 C32.062,15.217 32.599,15.038 33.146,14.722 L33.146,15.849 C32.546,16.122 31.946,16.259 31.357,16.259 C29.768,16.259 28.653,15.101 28.653,13.460 C28.653,11.871 29.747,10.745 31.252,10.745 C32.630,10.745 33.567,11.829 33.567,13.375 C33.567,13.523 33.567,13.691 33.546,13.870 L29.979,13.870 ZM31.199,11.786 C30.547,11.786 30.042,12.271 29.979,12.997 L32.273,12.997 C32.231,12.281 31.799,11.786 31.199,11.786 ZM25.274,16.133 L24.200,12.555 L23.137,16.133 L21.927,16.133 L20.117,10.871 L21.464,10.871 L22.527,14.449 L23.590,10.871 L24.810,10.871 L25.873,14.449 L26.936,10.871 L28.283,10.871 L26.484,16.133 L25.274,16.133 ZM17.043,16.259 C15.454,16.259 14.328,15.112 14.328,13.502 C14.328,11.881 15.454,10.745 17.043,10.745 C18.632,10.745 19.748,11.881 19.748,13.502 C19.748,15.112 18.632,16.259 17.043,16.259 ZM17.043,11.871 C16.254,11.871 15.707,12.534 15.707,13.502 C15.707,14.470 16.254,15.133 17.043,15.133 C17.822,15.133 18.369,14.470 18.369,13.502 C18.369,12.534 17.822,11.871 17.043,11.871 ZM11.128,13.533 L9.918,13.533 L9.918,16.133 L8.571,16.133 L8.571,8.892 L11.128,8.892 C12.602,8.892 13.654,9.850 13.654,11.218 C13.654,12.586 12.602,13.533 11.128,13.533 ZM10.939,9.987 L9.918,9.987 L9.918,12.439 L10.939,12.439 C11.718,12.439 12.265,11.944 12.265,11.218 C12.265,10.482 11.718,9.987 10.939,9.987 Z"/>
<path fill-rule="evenodd"  opacity="0.502" fill="rgb(66, 71, 112)"
 d="M111.116,14.051 L105.557,14.051 C105.684,15.382 106.659,15.774 107.766,15.774 C108.893,15.774 109.781,15.536 110.555,15.146 L110.555,17.433 C109.784,17.861 108.765,18.169 107.408,18.169 C104.642,18.169 102.704,16.437 102.704,13.013 C102.704,10.121 104.348,7.825 107.049,7.825 C109.746,7.825 111.154,10.120 111.154,13.028 C111.154,13.303 111.129,13.898 111.116,14.051 ZM107.031,10.140 C106.321,10.140 105.532,10.676 105.532,11.955 L108.468,11.955 C108.468,10.677 107.728,10.140 107.031,10.140 ZM98.108,18.169 C97.114,18.169 96.507,17.750 96.099,17.451 L96.093,20.664 L93.254,21.268 L93.253,8.014 L95.753,8.014 L95.901,8.715 C96.293,8.349 97.012,7.825 98.125,7.825 C100.119,7.825 101.997,9.621 101.997,12.927 C101.997,16.535 100.139,18.169 98.108,18.169 ZM97.446,10.340 C96.795,10.340 96.386,10.578 96.090,10.903 L96.107,15.122 C96.383,15.421 96.780,15.661 97.446,15.661 C98.496,15.661 99.200,14.518 99.200,12.989 C99.200,11.504 98.485,10.340 97.446,10.340 ZM89.149,8.014 L91.999,8.014 L91.999,17.966 L89.149,17.966 L89.149,8.014 ZM89.149,4.836 L91.999,4.230 L91.999,6.543 L89.149,7.149 L89.149,4.836 ZM86.110,11.219 L86.110,17.966 L83.272,17.966 L83.272,8.014 L85.727,8.014 L85.905,8.853 C86.570,7.631 87.897,7.879 88.275,8.015 L88.275,10.625 C87.914,10.508 86.781,10.338 86.110,11.219 ZM80.024,14.475 C80.024,16.148 81.816,15.627 82.179,15.482 L82.179,17.793 C81.801,18.001 81.115,18.169 80.187,18.169 C78.502,18.169 77.237,16.928 77.237,15.247 L77.250,6.138 L80.022,5.548 L80.024,8.014 L82.180,8.014 L82.180,10.435 L80.024,10.435 L80.024,14.475 ZM76.485,14.959 C76.485,17.003 74.858,18.169 72.497,18.169 C71.518,18.169 70.448,17.979 69.392,17.525 L69.392,14.814 C70.345,15.332 71.559,15.721 72.500,15.721 C73.133,15.721 73.589,15.551 73.589,15.026 C73.589,13.671 69.273,14.181 69.273,11.038 C69.273,9.028 70.808,7.825 73.111,7.825 C74.052,7.825 74.992,7.969 75.933,8.344 L75.933,11.019 C75.069,10.552 73.972,10.288 73.109,10.288 C72.514,10.288 72.144,10.460 72.144,10.903 C72.144,12.181 76.485,11.573 76.485,14.959 Z"/>
</svg>
